X:84
T:Wanton Widow, The
M:2/4
L:1/8
B:Thompson's Compleat Collection of 200 Favourite Country Dances, vol. 2 (London, 1765)
Z:Transcribed and edited by Flynn Titford-Mock, 2007
Z:abc's:AK/Fiddler's Companion
K:D
a | {g}fedf | gbeg | fadf | e/d/c/B/ Aa | {g}fedf | gbeg | (3fga (3ABc | d3 :|
|: A | FAdf | eAgA | fadf | e/d/c/B/ AA | FAdf | eAgA | faAc | d3 :|

